src/module-documents.svg

<?xml version="1.0" encoding="UTF-8" standalone="no"?>
<svg
   xmlns:dc="http://purl.org/dc/elements/1.1/"
   xmlns:cc="http://creativecommons.org/ns#"
   xmlns:rdf="http://www.w3.org/1999/02/22-rdf-syntax-ns#"
   xmlns:svg="http://www.w3.org/2000/svg"
   xmlns="http://www.w3.org/2000/svg"
   xmlns:sodipodi="http://sodipodi.sourceforge.net/DTD/sodipodi-0.dtd"
   xmlns:inkscape="http://www.inkscape.org/namespaces/inkscape"
   width="1024"
   height="1024"
   viewBox="0 0 1024 1024"
   version="1.1"
   id="svg17"
   sodipodi:docname="module-documents.svg"
   inkscape:version="0.91 r13725">
  <metadata
     id="metadata21">
    <rdf:RDF>
      <cc:Work
         rdf:about="">
        <dc:format>image/svg+xml</dc:format>
        <dc:type
           rdf:resource="http://purl.org/dc/dcmitype/StillImage" />
        <dc:title>acc_documents</dc:title>
      </cc:Work>
    </rdf:RDF>
  </metadata>
  <sodipodi:namedview
     pagecolor="#ffffff"
     bordercolor="#666666"
     borderopacity="1"
     objecttolerance="10"
     gridtolerance="10"
     guidetolerance="10"
     inkscape:pageopacity="0"
     inkscape:pageshadow="2"
     inkscape:window-width="1920"
     inkscape:window-height="1015"
     id="namedview19"
     showgrid="false"
     inkscape:zoom="0.44834434"
     inkscape:cx="167.28276"
     inkscape:cy="514.44365"
     inkscape:window-x="0"
     inkscape:window-y="0"
     inkscape:window-maximized="1"
     inkscape:current-layer="svg17" />
  <!-- Generator: Sketch 3.8.3 (29802) - http://www.bohemiancoding.com/sketch -->
  <title
     id="title2">acc_documents</title>
  <desc
     id="desc4">Created with Sketch.</desc>
  <defs
     id="defs7" />
  <path
     id="Fill-4"
     style="fill:#000000;fill-rule:evenodd;stroke:none;stroke-width:38.77770615"
     d="m 914.25661,927.77087 c 0,13.15657 -8.14874,21.04036 -21.73207,21.04036 l -554.48101,0 c -13.59279,0 -21.73998,-7.87112 -21.73998,-21.04036 l 0,-52.63893 424.01147,0 c 27.195,0 43.49251,-15.78027 43.49251,-42.11031 l 0,-599.96725 108.71701,0 c 13.58333,0 21.73207,7.87958 21.73207,21.04037 z m -804.52263,-136.82998 0,-694.732967 c 0,-13.159923 8.14874,-21.058529 21.74153,-21.058529 l 565.34546,0 c 13.59437,0 21.74155,7.898606 21.74155,21.058529 l 0,694.732967 c 0,13.15235 -8.14718,21.04037 -21.74155,21.04037 l -565.34546,0 c -13.59279,0 -21.74153,-7.88802 -21.74153,-21.04037 z m 826.27516,-631.56581 -152.20161,0 0,-105.275768 C 783.80753,27.780674 767.51002,12 740.31502,12 L 87.981467,12 C 60.797496,12 44.500001,27.780674 44.500001,54.099312 l 0,778.930768 c 0,26.34272 16.297495,42.13142 43.481466,42.13142 l 152.211053,0 0,94.73652 c 0,26.32158 16.30695,42.10198 43.49248,42.10198 l 652.32414,0 C 963.20256,1012 979.5,996.2196 979.5,969.89802 l 0,-768.42108 c 0,-26.33005 -16.29744,-42.10186 -43.49086,-42.10186 z m -326.1624,42.98909 -391.39603,0 0,63.15067 391.39603,0 z m 0,189.46889 -391.39603,0 0,63.14646 391.39603,0 z m 0,189.47314 -391.39603,0 0,63.15068 391.39603,0 z"
     inkscape:connector-curvature="0" />
</svg>

<?xml version="1.0" encoding="UTF-8"?>
<svg xmlns="http://www.w3.org/2000/svg" xmlns:xlink="http://www.w3.org/1999/xlink" width="1024pt" height="1024pt" viewBox="0 0 1024 1024" version="1.1">
<g id="surface1">
<path style=" stroke:none;fill-rule:evenodd;fill:rgb(0%,0%,0%);fill-opacity:1;" d="M 914.257812 927.769531 C 914.257812 940.925781 906.109375 948.8125 892.523438 948.8125 L 338.042969 948.8125 C 324.449219 948.8125 316.304688 940.941406 316.304688 927.769531 L 316.304688 875.132812 L 740.316406 875.132812 C 767.511719 875.132812 783.808594 859.351562 783.808594 833.023438 L 783.808594 233.054688 L 892.523438 233.054688 C 906.109375 233.054688 914.257812 240.933594 914.257812 254.09375 Z M 109.734375 790.941406 L 109.734375 96.207031 C 109.734375 83.046875 117.882812 75.148438 131.476562 75.148438 L 696.820312 75.148438 C 710.414062 75.148438 718.5625 83.046875 718.5625 96.207031 L 718.5625 790.941406 C 718.5625 804.09375 710.414062 811.980469 696.820312 811.980469 L 131.476562 811.980469 C 117.882812 811.980469 109.734375 804.09375 109.734375 790.941406 Z M 936.007812 159.375 L 783.808594 159.375 L 783.808594 54.097656 C 783.808594 27.78125 767.511719 12 740.316406 12 L 87.980469 12 C 60.796875 12 44.5 27.78125 44.5 54.097656 L 44.5 833.03125 C 44.5 859.371094 60.796875 875.160156 87.980469 875.160156 L 240.191406 875.160156 L 240.191406 969.898438 C 240.191406 996.21875 256.5 1012 283.683594 1012 L 936.007812 1012 C 963.203125 1012 979.5 996.21875 979.5 969.898438 L 979.5 201.476562 C 979.5 175.148438 963.203125 159.375 936.007812 159.375 Z M 609.847656 202.363281 L 218.449219 202.363281 L 218.449219 265.515625 L 609.847656 265.515625 Z M 609.847656 391.832031 L 218.449219 391.832031 L 218.449219 454.980469 L 609.847656 454.980469 Z M 609.847656 581.304688 L 218.449219 581.304688 L 218.449219 644.457031 L 609.847656 644.457031 Z M 609.847656 581.304688 "/>
</g>
</svg>
